X: 2167
T: Mrs MORAY OF ABERCAIRNY
Q: "Strathspey."
R: Strathspey.
%R: strathspey
B: James Kerr "Merry Melodies" v.2 p.19 #167
Z: 2016 John Chambers <jc:trillian.mit.edu>
M: C
L: 1/16
K: D
|:\
DDD2 TF4 AD3FD3 | E=c3Gc3 (E=C3) TE4 |\
DDD2 TF4 AD3FD3 | (Dd3) (Fd3) (FD3) TF4 ::\
ddd2 uf3ud va3vduf3ud |
=ccc2 ue3uc vg3vcue3uc |\
[1 ddd2 f3d a3df3d | (Ad3) (Fd3) (FD3) TF4 :|\
[2 vd3vfue3ug fa3eg3 | f3de3c (dA3) TF4 |]
